outline/svg/pages.svg

<svg xmlns="http://www.w3.org/2000/svg" width="24" height="24"><path fill="none" d="M0 0h24v24H0V0z"/><g fill="currentColor"><path d="M19 3H5c-1.1 0-2 .9-2 2v14c0 1.1.9 2 2 2h14c1.1 0 2-.9 2-2V5c0-1.1-.9-2-2-2zm-6 2h6v6h-3l1-4-4 1V5zM5 5h6v3L7 7l1 4H5V5zm6 14H5v-6h3l-1 4 4-1v3zm8 0h-6v-3l4 1-1-4h3v6zm-4.37-4.37L12 13.72l-2.63.91.91-2.63-.91-2.63 2.63.91 2.63-.91-.91 2.63.91 2.63z"/></g></svg>

<?xml version="1.0" encoding="utf-8"?>
<!-- Generator: Adobe Illustrator 19.1.0, SVG Export Plug-In . SVG Version: 6.00 Build 0)  -->
<svg version="1.1" xmlns="http://www.w3.org/2000/svg" xmlns:xlink="http://www.w3.org/1999/xlink" x="0px" y="0px" width="24px"
	 height="24px" viewBox="0 0 24 24" enable-background="new 0 0 24 24" xml:space="preserve">
<g id="Bounding_Boxes">
	<g id="ui_x5F_spec_x5F_header_copy_2">
	</g>
	<path fill="none" d="M0,0h24v24H0V0z"/>
</g>
<g id="Outline" fill="currentColor">
	<g id="ui_x5F_spec_x5F_header">
	</g>
	<path d="M19,3H5C3.9,3,3,3.9,3,5v14c0,1.1,0.9,2,2,2h14c1.1,0,2-0.9,2-2v-7V5C21,3.9,20.1,3,19,3z M13,5h6v6h-3l1-4l-4,1V5z M5,5h6
		v3L7,7l1,4H5V5z M11,19H5v-6h3l-1,4l4-1V19z M19,19h-6v-3l4,1l-1-4h3V19z M14.63,14.63L12,13.72l-2.63,0.91L10.28,12L9.37,9.37
		L12,10.28l2.63-0.91L13.72,12L14.63,14.63z"/>
</g>
</svg>
